face_recognition/images/RAColor_Free_Styles/RAColor FREE/RAColor - 10.costyle
<?xml version="1.0"?>
<SL Engine="1300">
	<E K="Brightness" V="-2" />
	<E K="Clarity" V="-14" />
	<E K="ClarityMethod" V="2" />
	<E K="ClarityStructure" V="-4.66666698455811" />
	<E K="CnrAmount" V="25" />
	<E K="ColorBalance" V="1;1;1" />
	<E K="ColorBalanceHighlight" V="1;1;1" />
	<E K="ColorBalanceMidtone" V="1;1;1" />
	<E K="ColorBalanceShadow" V="1;1;1" />
	<E K="ColorCorrections" V="1,1,1,0,0,0,127,63,119,-28.822566986084,28.822566986084,-50,50,12,0,0,0,0;1,1,1,0,0,0,67,63,127,-21.9782791137695,21.9782791137695,-50,50,12,0,0,0,0;1,1,1,0,0,0,63,118,127,-22.3223114013672,22.3223114013672,-50,50,12,0,0,0,0;1,1,1,0,0,0,69,127,63,-38.9258460998535,38.9258460998535,-50,50,12,0,0,0,0;1,1,1,0,0,0,127,115,63,-13.5424394607544,13.5424394607544,-50,50,12,0,0,0,0;1,1,1,0,0,0,127,68,63,-18.4085693359375,18.4085693359375,-50,50,12,0,0,0,0;0,1,1,0,-12,0,0,0,0,0,0,0,0,0,0,0,0,0;1,1,0,0,0,0,237,45.3288917541504,66.479118347168,-9.59939575195313,9.18455505371094,-80.8738861083984,19.1261138916016,25.9748382568359,0,0,0,0;1,1,0,0,-10.5,0.560000002384186,255,130,12,0,4.55426025390625,-95.2941207885742,4.70587921142578,18.2099227905273,0,0,0,0;1,1,0,0,-43.2000007629395,0,255,225.91796875,36.1078147888184,-5.1807861328125,1.47015380859375,-85.8400726318359,14.1599273681641,20.3872756958008,0,0,0,0;1,1,0,-9,-46.8600006103516,0,58.8606338500977,208,10.4000005722046,-33.7201843261719,32.3572998046875,-95,5,23.2739639282227,0,0,0,0;1,1,0,-24,0,0,22.6761436462402,216,177.109222412109,-4.34454345703125,5.92352294921875,-89.5017852783203,10.4982147216797,28.4633140563965,0,0,0,0;1,1,0,0,0,0,61.345775604248,87.8979263305664,165,-14.3739013671875,22.6552124023438,-62.820743560791,37.179256439209,27.3963947296143,0,0,0,0;1,1,0,0,0,0,104,0,148,-12.1621704101563,2.99188232421875,-100,0,26.3488998413086,0,0,0,0;1,1,0,0,0,0,235,50.884838104248,191.595169067383,-6.26992797851563,5.4552001953125,-78.3468780517578,21.6531219482422,20.9790744781494,0,0,0,0;1,1,2,2.36563158035278,-15.9744558334351,0,174,139,97,0,25,-42.1264381408691,25.6254768371582,25,0,0,0,0" />
	<E K="Contrast" V="-18.8089179992676" />
	<E K="FilmGrainAmount" V="26" />
	<E K="FilmGrainDensity" V="0" />
	<E K="FilmGrainGranularity" V="50" />
	<E K="FilmGrainType" V="4" />
	<E K="GradationCurve" V="0,0.0350000001490116;0.114000000059605,0.101999998092651;0.314000010490417,0.243000000715256;0.426999986171722,0.368999987840652;0.528999984264374,0.497999995946884;0.626999974250793,0.620000004768372;0.745000004768372,0.749000012874603;0.889999985694885,0.878000020980835;1,0.964999973773956" />
	<E K="GradationCurveBlue" V="0,0.0199999995529652;0.114000000059605,0.125;0.314000010490417,0.310000002384186;0.426999986171722,0.42399999499321;0.528999984264374,0.532999992370605;0.626999974250793,0.630999982357025;0.745000004768372,0.745000004768372;0.889999985694885,0.870999991893768;1,0.968999981880188" />
	<E K="GradationCurveGreen" V="0,0.00800000037997961;0.114000000059605,0.114000000059605;0.314000010490417,0.314000010490417;0.426999986171722,0.458999991416931;0.528999984264374,0.573000013828278;0.626999974250793,0.675000011920929;0.745000004768372,0.779999971389771;0.889999985694885,0.906000018119812;1,1" />
	<E K="GradationCurveRed" V="0,0;0.114000000059605,0.0939999967813492;0.314000010490417,0.298000007867813;0.426999986171722,0.455000013113022;0.528999984264374,0.579999983310699;0.626999974250793,0.685999989509583;0.745000004768372,0.791999995708466;0.889999985694885,0.910000026226044;1,1" />
	<E K="GradationCurveY" V="0,0;0.200000002980232,0.200000002980232;0.400000005960464,0.400000005960464;0.600000023841858,0.600000023841858;0.800000011920929,0.800000011920929;1,1" />
	<E K="Highlight" V="1;1;1;0.790000021457672" />
	<E K="HighlightRecoveryEx" V="-74.5222930908203" />
	<E K="Midtone" V="0;0;0;0" />
	<E K="Name" V="RAColor - 10" />
	<E K="NoiseDetailsAmount" V="50" />
	<E K="NrAmount" V="0" />
	<E K="Saturation" V="-9" />
	<E K="Shadow" V="0;0;0;0" />
	<E K="ShadowRecovery" V="24" />
	<E K="StyleSource" V="Styles" />
	<E K="TargetHighlight" V="1;1;1;1" />
	<E K="TargetShadow" V="0;0;0;0" />
	<E K="UsmAmount" V="50" />
	<E K="UsmRadius" V="1" />
	<E K="UUID" V="49F2DBDC-EB38-4A9D-82E3-CC9548AB720E" />
	<E K="Vignetting" V="-1.13333296775818|1|0|0" />
	<E K="WhiteBalanceTemperature" V="6177.11376953125" />
	<E K="WhiteBalanceTint" V="1.00000333786011" />
</SL>
