face_recognition/images/RAColor_Free_Styles/RAColor FREE/RAColor - 19.costyle
<?xml version="1.0"?>
<SL Engine="1300">
	<E K="Brightness" V="3" />
	<E K="Clarity" V="0" />
	<E K="ClarityMethod" V="2" />
	<E K="ClarityStructure" V="0" />
	<E K="ColorBalance" V="1;1;1" />
	<E K="ColorBalanceHighlight" V="0.964999973773956;0.964999973773956;0.964999973773956" />
	<E K="ColorBalanceMidtone" V="1.06666696071625;1.06666696071625;1.06666696071625" />
	<E K="ColorBalanceShadow" V="0.975000023841858;0.975000023841858;0.975000023841858" />
	<E K="ColorCorrections" V="1,1,0,0,-18,0.150000005960464,237,45.3288917541504,66.479118347168,-9.59939575195313,9.18455505371094,-80.8738861083984,19.1261138916016,25.9748382568359,0,0,0,0;1,1,0,0,-4,-0.175999999046326,255,130,12,0,4.55426025390625,-95.2941207885742,4.70587921142578,18.2099227905273,0,0,0,0;1,1,0,0,-12,0.5,255,225.91796875,36.1078147888184,-5.1807861328125,1.47015380859375,-85.8400726318359,14.1599273681641,20.3872756958008,0,0,0,0;1,1,0,3,-33,-0.25,58.8606338500977,208,10.4000005722046,-33.7201843261719,32.3572998046875,-95,5,23.2739639282227,0,0,0,0;1,1,0,3,-27,0.330000013113022,22.6761436462402,216,177.109222412109,-4.34454345703125,5.92352294921875,-89.5017852783203,10.4982147216797,28.4633140563965,0,0,0,0;1,1,0,-1.5,-17.7000007629395,-0.75,61.345775604248,87.8979263305664,165,-14.3739013671875,22.6552124023438,-62.820743560791,37.179256439209,27.3963947296143,0,0,0,0;1,1,0,6,-50,1.25999999046326,104,0,148,-12.1621704101563,2.99188232421875,-100,0,26.3488998413086,0,0,0,0;1,1,0,6,-28,0.920000016689301,235,50.884838104248,191.595169067383,-6.26992797851563,5.4552001953125,-78.3468780517578,21.6531219482422,20.9790744781494,0,0,0,0;1,1,2,2.36563158035278,-15.9744558334351,0,174,139,97,0,25,-42.1264381408691,25.6254768371582,25,0,0,0,0" />
	<E K="Contrast" V="-6" />
	<E K="Exposure" V="0.300000011920929" />
	<E K="FilmGrainAmount" V="15" />
	<E K="FilmGrainDensity" V="0" />
	<E K="FilmGrainGranularity" V="50" />
	<E K="FilmGrainType" V="4" />
	<E K="GradationCurve" V="0,0;0.298038989305496,0.294117987155914;0.729412019252777,0.733332991600037;1,0.980391979217529" />
	<E K="GradationCurveBlue" V="0,0;0.0941179990768433,0.0431369990110397;0.32548999786377,0.274509996175766;0.466666996479034,0.478430986404419;0.717647016048431,0.784313976764679;1,1" />
	<E K="GradationCurveGreen" V="0,0;0.10980399698019,0.0352940000593662;0.470587998628616,0.486274987459183;0.709803998470306,0.776471018791199;1,1" />
	<E K="GradationCurveRed" V="0,0;0.117646999657154,0.0431369990110397;0.278430998325348,0.200000002980232;0.466666996479034,0.478430986404419;0.713725984096527,0.768626987934113;1,1" />
	<E K="GradationCurveY" V="0,0;0.200000002980232,0.207499995827675;0.400000005960464,0.380250006914139;0.600000023841858,0.564999997615814;0.800000011920929,0.764999985694885;1,1" />
	<E K="Highlight" V="1;1;1;1" />
	<E K="Midtone" V="0;0;0;0.0164250005036592" />
	<E K="Name" V="RAColor - 19" />
	<E K="Saturation" V="2" />
	<E K="Shadow" V="0;0;0;0" />
	<E K="ShadowRecovery" V="24" />
	<E K="StyleSource" V="Styles" />
	<E K="TargetHighlight" V="1;1;1;0.9254350066185" />
	<E K="TargetShadow" V="0;0;0;0" />
	<E K="UsmAmount" V="0" />
	<E K="UsmRadius" V="1" />
	<E K="UUID" V="736116CF-17FE-41D1-99DB-519DE0A1C028" />
	<E K="WhiteBalanceTemperature" V="6000" />
	<E K="WhiteBalanceTint" V="-0.58174592256546" />
</SL>
