face_recognition/images/RAColor_Free_Styles/RAColor FREE/RAColor - Agfa vista.costyle
<?xml version="1.0"?>
<SL Engine="1300">
	<E K="Brightness" V="7" />
	<E K="Clarity" V="-5" />
	<E K="ClarityMethod" V="2" />
	<E K="ClarityStructure" V="-1.66666698455811" />
	<E K="ColorBalance" V="1;1;1" />
	<E K="ColorBalanceHighlight" V="1.02564096450806;1.02564096450806;1.02564096450806" />
	<E K="ColorBalanceMidtone" V="1.06666696071625;1.06666696071625;1.06666696071625" />
	<E K="ColorBalanceShadow" V="1;1;1" />
	<E K="ColorCorrections" V="1,1,0,1.5,-12,0.150000005960464,237,45.3288917541504,66.479118347168,-9.59939575195313,9.18455505371094,-80.8738861083984,19.1261138916016,25.9748382568359,0,0,0,0;1,1,0,2.40000009536743,-10,-0.0879999995231628,255,130,12,0,4.55426025390625,-95.2941207885742,4.70587921142578,18.2099227905273,0,0,0,0;1,1,0,0,-16,0.5,255,225.91796875,36.1078147888184,-5.1807861328125,1.47015380859375,-85.8400726318359,14.1599273681641,20.3872756958008,0,0,0,0;1,1,0,3,-23.1000022888184,0,58.8606338500977,208,10.4000005722046,-33.7201843261719,32.3572998046875,-95,5,23.2739639282227,0,0,0,0;1,1,0,3,-18.9000015258789,0,22.6761436462402,216,177.109222412109,-4.34454345703125,5.92352294921875,-89.5017852783203,10.4982147216797,28.4633140563965,0,0,0,0;1,1,0,0,-17.7000007629395,-1.25,61.345775604248,87.8979263305664,165,-14.3739013671875,22.6552124023438,-62.820743560791,37.179256439209,27.3963947296143,0,0,0,0;1,1,0,6,-45,-1.04999995231628,104,0,148,-12.1621704101563,2.99188232421875,-100,0,26.3488998413086,0,0,0,0;1,1,0,9,-31.5,0,235,50.884838104248,191.595169067383,-6.26992797851563,5.4552001953125,-78.3468780517578,21.6531219482422,20.9790744781494,0,0,0,0;1,1,2,2.36563158035278,-15.9744558334351,0,174,139,97,0,25,-42.1264381408691,25.6254768371582,25,0,0,0,0" />
	<E K="Contrast" V="-9" />
	<E K="Exposure" V="0.300000011920929" />
	<E K="FilmGrainAmount" V="20" />
	<E K="FilmGrainDensity" V="0" />
	<E K="FilmGrainGranularity" V="50" />
	<E K="FilmGrainType" V="1" />
	<E K="GradationCurve" V="0,0.011765000410378;0.243137001991272,0.23921599984169;0.737254977226257,0.741176009178162;1,0.960784018039703" />
	<E K="GradationCurveBlue" V="0,0;0.141176000237465,0.0392160005867481;0.298038989305496,0.180391997098923;0.478430986404419,0.462745010852814;0.717647016048431,0.807843029499054;0.870588004589081,0.921568989753723;1,1" />
	<E K="GradationCurveGreen" V="0,0;0.141176000237465,0.0392160005867481;0.298038989305496,0.180391997098923;0.486274987459183,0.478430986404419;0.709803998470306,0.788235008716583;0.858824014663696,0.901961028575897;1,1" />
	<E K="GradationCurveRed" V="0,0;0.156863003969193,0.0352940000593662;0.301961004734039,0.172548994421959;0.486274987459183,0.478430986404419;0.709803998470306,0.80392199754715;1,1" />
	<E K="GradationCurveY" V="0,0;0.200000002980232,0.212500005960464;0.400000005960464,0.38374999165535;0.600000023841858,0.564999997615814;0.800000011920929,0.764999985694885;1,1" />
	<E K="Highlight" V="1;1;1;1" />
	<E K="HighlightRecoveryEx" V="-37.5796165466309" />
	<E K="Midtone" V="0;0;0;0.00730000017210841" />
	<E K="Name" V="RAColor - Agfa vista" />
	<E K="Saturation" V="-6" />
	<E K="Shadow" V="0;0;0;0" />
	<E K="ShadowRecovery" V="28" />
	<E K="StyleSource" V="Styles" />
	<E K="TargetHighlight" V="1;1;1;0.966859996318817" />
	<E K="TargetShadow" V="0;0;0;0" />
	<E K="UsmAmount" V="0" />
	<E K="UsmRadius" V="1" />
	<E K="UUID" V="DFB9487B-5B9E-4680-855A-852432A37549" />
	<E K="WhiteBalanceTemperature" V="4425.00048828125" />
	<E K="WhiteBalanceTint" V="4.44653940200806" />
</SL>
